img/icons/cluster_active.svg

<svg height="14" viewBox="0 0 14 14" width="14" xmlns="http://www.w3.org/2000/svg"><path d="m6.98778829 0c.12809249 0 .27184073.01651401.39993322.08281654l4.87747739 2.41794732c.2398176.13260506.4317191.34778019.5116583.61299031h-.0002372l1.2154554 5.41561045c.0317859.28172413-.0320231.56320179-.1919015.79513741l-3.3745255 4.32248137c-.1755342.2484496-.44761209.3810547-.73534578.3480267h-5.3888985c-.27184073-.0167605-.54368146-.1491191-.7358202-.3480267l-3.37405107-4.32248137c-.1602355-.22917349-.22378188-.51625101-.17600857-.79513741l1.21545541-5.44888495c.05919687-.27077778.23656279-.49736639.47963521-.61274384l4.87747738-2.4347078c.12785528-.03302803.27184073-.03302803.39969601-.03302803zm.03524454.5c-.11691068 0-.23411074.04013085-.31195473.12069204-.07813337.08056119-.11720006.1811878-.11720006.28151493v.10092609c0 .08056119.01967804.16082289.03906669.24138408.01938865.04043034.01938865.08056119.01938865.12069204v.02036491c.03906669.22131865.03906669.4426373.03906669.68402138-.01938865.06049576-.03906669.12069203-.09752203.16112237l-.01938865.02006543-.01967803.16112237c-.2144327.02006543-.42915478.06019628-.66326552.10032713-.9167649.20125322-1.75568581.70438629-2.39956267 1.40877257l-.11691068-.08056118h-.01967803c-.01938865 0-.03906669.02036491-.07813337.02036491-.03877731 0-.09752203-.02036491-.11691068-.04043034-.1756554-.14075746-.33163276-.30187984-.48761012-.46270273-.01967803-.04043033-.05874472-.06049576-.07813337-.08086067-.05845534-.05989679-.09752202-.12039255-.15626675-.18088831-.01938865-.02006543-.0387773-.02006543-.05845533-.04013085l-.01938865-.02006543c-.07843755-.06268618-.17410877-.09792727-.27317742-.10062661-.11691068 0-.21472209.04013085-.29256608.14075746-.11720005.1811878-.07813337.42257188.07813338.56332934.01938865 0 .01938865.02036491.01938865.02036491s.03906668.04013085.05845534.04013085c.05845533.04013086.13658871.08056119.21472208.12069204l.11691067.06049576c.19504405.12069204.37069945.24138408.54635484.38214154.03906669.04043034.07813337.12099153.05845534.1811878v.02006543l.11720006.12099152c-.01967804.04013085-.03906669.06019628-.05874472.10062661-.60319035.97933164-.83912239 2.15329538-.66326552 3.30031331l-.15626674.04013085c0 .02006543-.01938865.02006543-.01938865.02006543-.01938865.06049576-.07813338.10062661-.13629933.14075746-.21708801.06150604-.43922718.10201054-.6635549.12099152h-.01938865c-.03906669 0-.07813337 0-.11691068.02006543l-.23440011.02006543c-.01938865 0-.0387773.02006542-.07813337.02006542-.01938866 0-.01938866 0-.03877731.02006543-.10151985.01693801-.19205915.07576799-.25091147.16303547-.05885233.08726749-.08098369.19550797-.06133263.29996674.03906668.1811878.21472208.30187984.39037748.28151493.03906668 0 .05845533 0 .09752202-.02006543.01938865 0 .01938865 0 .01938865-.02006542 0-.02006543.03906669-.02006543.07813337-.02006543.07813337-.02006543.15626675-.06049576.2144327-.08056119.03906669-.02006542.07813337-.04013085.11720006-.04013085h.01938865c.19533343-.08056119.40976613-.14075746.62448821-.1811878h.01938866c.05845533 0 .11720005.02006543.15626674.06049576.01938865 0 .01938865.02006543.01938865.02006543l.1756554-.02006543c.29227669.92540546.83863153 1.75078325 1.59970845 2.35424345.17536601.1407575.33163276.261749.5266768.3623756l-.07813337.1608229c0 .0203649.01967804.0203649.01967804.0203649.0387773.0601963.0387773.1407575.01938865.2012532-.07813338.2012533-.19504405.4025065-.31224411.5833948v.0200654c-.01938865.0404304-.0387773.0604958-.07813337.1006266-.0387773.0404304-.07784399.1209916-.13629933.2012533-.01967803.0203649-.01967803.0404303-.03906668.0604957 0 0 0 .0200655-.01938866.0200655-.0978114.2012532-.01967803.4426373.15597737.5432639.03906668.0203649.09752202.0404303.15626674.0404303.15597736 0 .29227669-.1006266.37041006-.2416836 0 0 0-.0200654.01967804-.0200654 0-.0200654.01938865-.0401308.0387773-.0601963.01967803-.0808606.05874472-.1407574.07813337-.2216181l.03906669-.120692c.05845533-.2213187.15626674-.4222724.25349938-.6238251.03906669-.0601963.09752203-.1006267.15626675-.1206921.01938865 0 .01938865 0 .01938865-.0200654l.07813337-.1611224c.54606546.2216182 1.11180895.3222448 1.69723047.3222448.35102141 0 .70233221-.0404304 1.05335362-.1209916.21472208-.0401308.42915478-.120692.62448821-.1808883l.07813337.1407575c.01938865 0 .01938865 0 .01938865.0200654.05845534.0200654.11691068.0604958.15597736.1206921.09752203.2012532.1756554.4025064.25349939.6037596v.0200655l.03906668.1209915c.01967804.0802617.03906669.1608229.07813338.2213186.01938865.0200655.01938865.0401309.03906668.0601963 0 0 0 .0200654.01938865.0200654.07813338.1407575.21472209.2416836.37069945.2416836.05845534 0 .09752202-.0200654.15626674-.0404303.07784399-.0401309.15597735-.1206921.17536605-.2213187.019678-.1006266.019678-.2213186-.0193887-.3219452 0-.0200655-.019678-.0200655-.019678-.0200655 0-.0200654-.0193887-.0401308-.03906671-.0604957-.03399655-.0746462-.08009617-.1427148-.13629932-.2012533-.01967804-.0401308-.03906669-.0601962-.07813338-.1006266v-.0200654c-.13658871-.1808883-.23440011-.3821415-.3122441-.5833948-.01938865-.0604957-.01938865-.1407574.01967803-.2012532 0-.0203649.01938865-.0203649.01938865-.0203649l-.05845533-.1608229c1.01428696-.6238251 1.75568576-1.58966088 2.12638526-2.73698396l.1562667.02036491c.0193887 0 .0193887-.02036491.0193887-.02036491.0425499-.04032076.0985979-.06191131.1562667-.06019627h.0193887c.2144327.04013085.4291548.10062661.6241988.1811878h.0193887c.0390667.02006542.0781333.04013085.1172.04013085.0781334.04013085.1365887.06049576.2144327.08056118.0196781 0 .0390667.02006543.0781334.02006543.0193886 0 .0193886 0 .0390667.02006543.0390667.02006542.0584553.02006542.097522.02006542.1756554 0 .3316328-.12069204.3900881-.28151493-.0584553-.20125322-.195044-.3623756-.3900881-.40250645-.0193886 0-.0193886 0-.0193886-.02006542 0-.02036491-.0587448-.02036491-.0781334-.02036491-.0781334-.02006543-.1562668-.02006543-.2344001-.02006543-.0387773 0-.077844 0-.1169107-.02006542h-.0193887c-.2240024-.02063915-.4458953-.06101621-.6632655-.12069204-.0628647-.02457768-.1125733-.07580336-.1365887-.14075747 0-.02036491-.0193886-.02036491-.0193886-.02036491l-.1562668-.04013085c.0781334-.58369425.0390667-1.18745392-.0781334-1.77084869-.1377251-.58536518-.3684137-1.14300094-.6826541-1.65015665l.1169107-.12069204v-.02036491c0-.06019628.019678-.14075746.0587447-.18088832.175366-.14075746.3510214-.28181441.5460654-.38244102l.1172001-.06049576c.0781334-.04013085.1365887-.08026171.2144327-.12069204.019678-.02006543.0390667-.02006543.0587447-.04013085l.0193887-.02006543c.1756554-.14075746.214722-.38244102.0781333-.56362882-.0675238-.08505353-.1668999-.13625804-.2731774-.14075747-.097522 0-.195044.04013086-.2731774.10062662l-.0193887.02006542c-.019678.02006543-.0390666.04013085-.0587447.04013085-.0584553.06049576-.1169107.12099153-.1559773.1811878-.0193887.04013085-.0584554.06049576-.0781334.08056119-.1559774.16082289-.3119547.32194526-.4876101.4426373-.0390667.02006543-.0781334.04043034-.1169107.04043034-.019678 0-.0587447 0-.0781334-.02036491l-.1562667.12099152c-.1559774-.16112237-.3313434-.32224475-.48761014-.48306764-.72172086-.58369425-1.61909711-.94577036-2.53615139-1.04639697l-.01938865-.16112238-.01967804-.02006542c-.05845533-.04013086-.07813337-.10062662-.09752202-.16112238 0-.22131865 0-.4426373.03906669-.68402138v-.02006542l.00969432-.06060807.00969433-.06038345c.01967803-.08026171.01967803-.16082289.03906668-.24138408v-.12069204c.01967804-.20125322-.13658871-.40250645-.33163275-.40250645zm.03935607 8.73325194c.05845533.04043033.09752202.08086067.15626674.14075746l.93615355 1.7510827c-.09752202.0200655-.2144327.0401309-.35102141.0805612-.27317742.0601963-.56574349.1006266-.85830956.1006266-.40976613 0-.83921029-.0808606-1.22929839-.2012532l.95612097-1.79091409c.09752202-.12099153.25349939-.16112238.3900881-.08086067zm-1.75568582-.86520918c.15597736 0 .31195473.10062661.33163276.26174898.01938865.06019628.01938865.14075747-.01967803.20125323l-.74110951 1.85140983c-.68294355-.4630022-1.22929839-1.16738845-1.50218642-1.97240135zm3.29693893-.02006543 1.95072989.34201069c-.0975221.28181441-.2144327.5435634-.3704101.76488205-.29776762.48816214-.69782689.90075283-1.17055366 1.20721983l-.76107692-1.87147527c-.03877731-.16082289.01967803-.32194526.17565539-.40250645.05845534-.02006542.11720006-.04013085.1756554-.04013085zm-1.34649845-1.60972632.37069944.48306764-.13658871.58369425-.5266768.2614495-.52667681-.2614495-.15626674-.58369425.37069944-.48306764zm2.94591754-1.428838c.215493.36784635.3735125.76859873.4682214 1.18745393.0978114.42227239.1172001.84484427.0784228 1.26741614l-1.8537866-.54296443c-.1756554-.04013085-.27317742-.22161813-.23411074-.40250645.01967804-.06019628.03906669-.10062661.07813337-.14075746zm-6.49606647 0 1.44344171 1.32791191c.13658871.12099152.15626674.32224474.03906668.46300221-.03906668.06019628-.07813337.08056119-.15626674.10062661l-1.87259649.56332934c-.07813337-.84514375.11691068-1.71035293.54635484-2.45487007zm2.77026212-1.85140988-.11720006 2.01253226c0 .18088831-.15626674.32164577-.33163275.32164577-.05845534 0-.09752203-.02006542-.15626675-.04013085l-1.58003041-1.18745392c.49369039-.50914098 1.1155038-.86472578 1.79475249-1.02633155zm.95583159.02006543c.81924288.10062661 1.59970845.48306764 2.18484059 1.08652783l-1.58003041 1.1673885c-.13658871.0802617-.33163276.06019627-.42915478-.08086067-.03857992-.03573316-.06005656-.08719306-.05874473-.14075747z" fill="#858585"/></svg>

<?xml version="1.0" encoding="UTF-8"?>
<svg width="14px" height="14px" viewBox="0 0 14 14" version="1.1" xmlns="http://www.w3.org/2000/svg" xmlns:xlink="http://www.w3.org/1999/xlink">
    <title>cluster_active</title>
    <g id="Icon" stroke="none" stroke-width="1" fill="none" fill-rule="evenodd">
        <g id="Visual-Studio" transform="translate(-131.000000, -230.000000)" fill="#858585" fill-rule="nonzero">
            <g id="cluster_active" transform="translate(131.000000, 230.000000)">
                <path d="M6.98778829,0 C7.11588078,0 7.25962902,0.0165140133 7.38772151,0.0828165442 L7.38772151,0.0828165442 L12.2651989,2.50076386 C12.5050165,2.63336892 12.696918,2.84854405 12.7768572,3.11375417 L12.77662,3.11375417 L13.9920754,8.52936462 C14.0238613,8.81108875 13.9600523,9.09256641 13.8001739,9.32450203 L13.8001739,9.32450203 L10.4256484,13.6469834 C10.2501142,13.895433 9.97803631,14.0280381 9.69030262,13.9950101 L9.69030262,13.9950101 L4.30140412,13.9950101 C4.02956339,13.9782496 3.75772266,13.845891 3.56558392,13.6469834 L3.56558392,13.6469834 L0.191532849,9.32450203 C0.031297352,9.09532854 -0.0322490278,8.80825102 0.0155242796,8.52936462 L0.0155242796,8.52936462 L1.23097969,3.08047967 C1.29017656,2.80970189 1.46754248,2.58311328 1.7106149,2.46773583 L1.7106149,2.46773583 L6.58809228,0.0330280265 C6.71594756,0 6.85993301,0 6.98778829,0 Z M7.02303283,0.5 C6.90612215,0.5 6.78892209,0.540130851 6.7110781,0.620692038 C6.63294473,0.701253225 6.59387804,0.801879838 6.59387804,0.902206966 L6.59387804,1.00313306 C6.59387804,1.08369425 6.61355608,1.16395595 6.63294473,1.24451714 C6.65233338,1.28494748 6.65233338,1.32507833 6.65233338,1.36520918 L6.65233338,1.38557409 C6.69140007,1.60689274 6.69140007,1.82821139 6.69140007,2.06959547 C6.67201142,2.13009123 6.65233338,2.1902875 6.59387804,2.23071784 L6.57448939,2.25078327 L6.55481136,2.41190564 C6.34037866,2.43197107 6.12565658,2.47210192 5.89154584,2.51223277 C4.97478094,2.71348599 4.13586003,3.21661906 3.49198317,3.92100534 L3.37507249,3.84044416 L3.35539446,3.84044416 C3.33600581,3.84044416 3.31632777,3.86080907 3.27726109,3.86080907 C3.23848378,3.86080907 3.17973906,3.84044416 3.16035041,3.82037873 C2.98469501,3.67962127 2.82871765,3.51849889 2.67274029,3.357676 C2.65306226,3.31724567 2.61399557,3.29718024 2.59460692,3.27681533 C2.53615158,3.21691854 2.4970849,3.15642278 2.43834017,3.09592702 C2.41895152,3.07586159 2.39956287,3.07586159 2.37988484,3.05579617 L2.36049619,3.03573074 C2.28205864,2.97304456 2.18638742,2.93780347 2.08731877,2.93510413 C1.97040809,2.93510413 1.87259668,2.97523498 1.79475269,3.07586159 C1.67755264,3.25704939 1.71661932,3.49843347 1.87288607,3.63919093 C1.89227472,3.63919093 1.89227472,3.65955584 1.89227472,3.65955584 C1.89227472,3.65955584 1.9313414,3.69968669 1.95073006,3.69968669 C2.00918539,3.73981755 2.08731877,3.78024788 2.16545214,3.82037873 L2.28236281,3.88087449 C2.47740686,4.00156653 2.65306226,4.12225857 2.82871765,4.26301603 C2.86778434,4.30344637 2.90685102,4.38400756 2.88717299,4.44420383 L2.88717299,4.46426926 L3.00437305,4.58526078 C2.98469501,4.62539163 2.96530636,4.64545706 2.94562833,4.68588739 C2.34243798,5.66521903 2.10650594,6.83918277 2.28236281,7.9862007 L2.12609607,8.02633155 C2.12609607,8.04639698 2.10670742,8.04639698 2.10670742,8.04639698 C2.08731877,8.10689274 2.02857404,8.14702359 1.97040809,8.18715444 C1.75332008,8.24866048 1.53118091,8.28916498 1.30685319,8.30814596 L1.28746454,8.30814596 C1.24839785,8.30814596 1.20933117,8.30814596 1.17055386,8.32821139 L0.936153748,8.34827682 L0.936153748,8.34827682 C0.916765096,8.34827682 0.897376445,8.36834224 0.858020376,8.36834224 C0.838631724,8.36834224 0.838631724,8.36834224 0.819243072,8.38840767 C0.717723224,8.40534568 0.627183923,8.46417566 0.568331597,8.55144314 C0.50947927,8.63871063 0.487347905,8.74695111 0.506998966,8.85140988 C0.546065653,9.03259768 0.721721049,9.15328972 0.897376445,9.13292481 C0.936443131,9.13292481 0.955831782,9.13292481 0.994898469,9.11285938 C1.01428712,9.11285938 1.01428712,9.11285938 1.01428712,9.09279396 C1.01428712,9.07272853 1.05335381,9.07272853 1.09242049,9.07272853 C1.17055386,9.0526631 1.24868724,9.01223277 1.30685319,8.99216734 C1.34591988,8.97210192 1.38498656,8.95203649 1.42405325,8.95203649 L1.4434419,8.95203649 C1.63877533,8.8714753 1.85320803,8.81127903 2.06793011,8.77084869 L2.08731877,8.77084869 C2.1457741,8.77084869 2.20451882,8.79091412 2.24358551,8.83134445 C2.26297416,8.83134445 2.26297416,8.85140988 2.26297416,8.85140988 L2.43862956,8.83134445 C2.73090625,9.75674991 3.27726109,10.5821277 4.03833801,11.1855879 C4.21370402,11.3263454 4.36997077,11.4473369 4.56501481,11.5479635 L4.48688144,11.7087864 C4.48688144,11.7291513 4.50655948,11.7291513 4.50655948,11.7291513 C4.54533678,11.7893476 4.54533678,11.8699088 4.52594813,11.9304045 C4.44781475,12.1316578 4.33090408,12.332911 4.21370402,12.5137993 L4.21370402,12.5338647 C4.19431537,12.5742951 4.17492672,12.5943605 4.13557065,12.6344913 C4.09679335,12.6749217 4.05772666,12.7554829 3.99927132,12.8357446 C3.97959329,12.8561095 3.97959329,12.8761749 3.96020464,12.8962403 C3.96020464,12.8962403 3.96020464,12.9163058 3.94081598,12.9163058 C3.84300458,13.117559 3.92113795,13.3589431 4.09679335,13.4595697 C4.13586003,13.4799346 4.19431537,13.5 4.25306009,13.5 C4.40903745,13.5 4.54533678,13.3993734 4.62347015,13.2583164 C4.62347015,13.2583164 4.62347015,13.238251 4.64314819,13.238251 C4.64314819,13.2181856 4.66253684,13.1981202 4.68192549,13.1780547 C4.70160352,13.0971941 4.74067021,13.0372973 4.76005886,12.9564366 L4.79912555,12.8357446 C4.85758088,12.6144259 4.95539229,12.4134722 5.05262493,12.2119195 C5.09169162,12.1517232 5.15014696,12.1112928 5.20889168,12.0912274 C5.22828033,12.0912274 5.22828033,12.0912274 5.22828033,12.071162 L5.3064137,11.9100396 C5.85247916,12.1316578 6.41822265,12.2322844 7.00364417,12.2322844 C7.35466558,12.2322844 7.70597638,12.191854 8.05699779,12.1112928 C8.27171987,12.071162 8.48615257,11.9906008 8.681486,11.9304045 L8.75961937,12.071162 C8.77900802,12.071162 8.77900802,12.071162 8.77900802,12.0912274 C8.83746336,12.1112928 8.8959187,12.1517232 8.93498538,12.2119195 C9.03250741,12.4131727 9.11064078,12.6144259 9.18848477,12.8156791 L9.18848477,12.8357446 L9.22755145,12.9567361 C9.24722949,13.0369978 9.26661814,13.117559 9.30568483,13.1780547 C9.32507348,13.1981202 9.32507348,13.2181856 9.34475151,13.238251 C9.34475151,13.238251 9.34475151,13.2583164 9.36414016,13.2583164 C9.44227354,13.3990739 9.57886225,13.5 9.73483961,13.5 C9.79329495,13.5 9.83236163,13.4799346 9.89110635,13.4595697 C9.96895034,13.4194388 10.0470837,13.3388776 10.0664724,13.238251 C10.0861504,13.1376244 10.0861504,13.0169324 10.0470837,12.9163058 C10.0470837,12.8962403 10.0274057,12.8962403 10.0274057,12.8962403 C10.0274057,12.8761749 10.008017,12.8561095 9.98833899,12.8357446 C9.95434244,12.7610984 9.90824282,12.6930298 9.85203967,12.6344913 C9.83236163,12.5943605 9.81297298,12.5742951 9.77390629,12.5338647 L9.77390629,12.5137993 C9.63731758,12.332911 9.53950618,12.1316578 9.46166219,11.9304045 C9.44227354,11.8699088 9.44227354,11.7896471 9.48134022,11.7291513 C9.48134022,11.7087864 9.50072887,11.7087864 9.50072887,11.7087864 L9.44227354,11.5479635 C10.4565605,10.9241384 11.1979593,9.95830262 11.5686588,8.81097954 L11.7249255,8.83134445 C11.7443142,8.83134445 11.7443142,8.81097954 11.7443142,8.81097954 C11.7868641,8.77065878 11.8429121,8.74906823 11.9005809,8.75078327 L11.9199696,8.75078327 C12.1344023,8.79091412 12.3491244,8.85140988 12.5441684,8.93197107 L12.5635571,8.93197107 C12.6026238,8.95203649 12.6416904,8.97210192 12.6807571,8.97210192 C12.7588905,9.01223277 12.8173458,9.03259768 12.8951898,9.0526631 C12.9148679,9.0526631 12.9342565,9.07272853 12.9733232,9.07272853 C12.9927118,9.07272853 12.9927118,9.07272853 13.0123899,9.09279396 C13.0514566,9.11285938 13.0708452,9.11285938 13.1099119,9.11285938 C13.2855673,9.11285938 13.4415447,8.99216734 13.5,8.83134445 C13.4415447,8.63009123 13.304956,8.46896885 13.1099119,8.428838 C13.0905233,8.428838 13.0905233,8.428838 13.0905233,8.40877258 C13.0905233,8.38840767 13.0317785,8.38840767 13.0123899,8.38840767 C12.9342565,8.36834224 12.8561231,8.36834224 12.7779898,8.36834224 C12.7392125,8.36834224 12.7001458,8.36834224 12.6610791,8.34827682 L12.6416904,8.34827682 C12.417688,8.32763767 12.1957951,8.28726061 11.9784249,8.22758478 C11.9155602,8.2030071 11.8658516,8.15178142 11.8418362,8.08682731 C11.8418362,8.0664624 11.8224476,8.0664624 11.8224476,8.0664624 L11.6661808,8.02633155 C11.7443142,7.4426373 11.7052475,6.83887763 11.5880474,6.25548286 C11.4503223,5.67011768 11.2196337,5.11248192 10.9053933,4.60532621 L11.022304,4.48463417 L11.022304,4.46426926 C11.022304,4.40407298 11.041982,4.3235118 11.0810487,4.28338094 C11.2564147,4.14262348 11.4320701,4.00156653 11.6271141,3.90093992 L11.7443142,3.84044416 C11.8224476,3.80031331 11.8809029,3.76018245 11.9587469,3.71975212 C11.9784249,3.69968669 11.9978136,3.69968669 12.0174916,3.67962127 L12.0368803,3.65955584 C12.2125357,3.51879838 12.2516023,3.27711482 12.1150136,3.09592702 C12.0474898,3.01087349 11.9481137,2.95966898 11.8418362,2.95516955 C11.7443142,2.95516955 11.6467922,2.99530041 11.5686588,3.05579617 L11.5492701,3.07586159 C11.5295921,3.09592702 11.5102035,3.11599244 11.4905254,3.11599244 C11.4320701,3.1764882 11.3736147,3.23698397 11.3345481,3.29718024 C11.3151594,3.33731109 11.2760927,3.357676 11.2564147,3.37774143 C11.1004373,3.53856432 10.94446,3.69968669 10.7688046,3.82037873 C10.7297379,3.84044416 10.6906712,3.86080907 10.6518939,3.86080907 C10.6322159,3.86080907 10.5931492,3.86080907 10.5737605,3.84044416 L10.4174938,3.96143568 C10.2615164,3.80031331 10.0861504,3.63919093 9.92988366,3.47836804 C9.2081628,2.89467379 8.31078655,2.53259768 7.39373227,2.43197107 L7.37434362,2.27084869 L7.35466558,2.25078327 C7.29621025,2.21065241 7.27653221,2.15015665 7.25714356,2.08966089 C7.25714356,1.86834224 7.25714356,1.64702359 7.29621025,1.40563951 L7.29621025,1.38557409 L7.30590457,1.32496602 L7.30590457,1.32496602 L7.3155989,1.26458257 C7.33527693,1.18432086 7.33527693,1.10375968 7.35466558,1.02319849 L7.35466558,0.90250645 C7.37434362,0.701253225 7.21807687,0.5 7.02303283,0.5 Z M7.0623889,9.23325194 C7.12084423,9.27368227 7.15991092,9.31411261 7.21865564,9.3740094 L8.15480919,11.1250921 C8.05728717,11.1451576 7.94037649,11.165223 7.80378778,11.2056533 C7.53061036,11.2658496 7.23804429,11.3062799 6.94547822,11.3062799 C6.53571209,11.3062799 6.10626793,11.2254193 5.71617983,11.1050267 L6.6723008,9.31411261 C6.76982282,9.19312108 6.92580019,9.15299023 7.0623889,9.23325194 Z M5.30670308,8.36804276 C5.46268044,8.36804276 5.61865781,8.46866937 5.63833584,8.62979174 C5.65772449,8.68998802 5.65772449,8.77054921 5.61865781,8.83104497 L4.8775483,10.6824548 C4.19460475,10.2194526 3.64824991,9.51506635 3.37536188,8.71005345 L5.30670308,8.36804276 Z M8.60364201,8.34797733 L10.5543719,8.68998802 C10.4568498,8.97180243 10.3399392,9.23355142 10.1839618,9.45487007 C9.88619418,9.94303221 9.48613491,10.3556229 9.01340814,10.6620899 L8.25233122,8.79061463 C8.21355391,8.62979174 8.27200925,8.46866937 8.42798661,8.38810818 C8.48644195,8.36804276 8.54518667,8.34797733 8.60364201,8.34797733 Z M7.25714356,6.73825101 L7.627843,7.22131865 L7.49125429,7.8050129 L6.96457749,8.0664624 L6.43790068,7.8050129 L6.28163394,7.22131865 L6.65233338,6.73825101 L7.25714356,6.73825101 Z M10.2030611,5.30941301 C10.4185541,5.67725936 10.5765736,6.07801174 10.6712825,6.49686694 C10.7690939,6.91913933 10.7884826,7.34171121 10.7497053,7.76428308 L8.8959187,7.22131865 C8.7202633,7.1811878 8.62274128,6.99970052 8.66180796,6.8188122 C8.681486,6.75861592 8.70087465,6.71818559 8.73994133,6.67805474 L10.2030611,5.30941301 Z M3.70699463,5.30941301 L5.15043634,6.63732492 C5.28702505,6.75831644 5.30670308,6.95956966 5.18950302,7.10032713 C5.15043634,7.16052341 5.11136965,7.18088832 5.03323628,7.20095374 L3.16063979,7.76428308 C3.08250642,6.91913933 3.27755047,6.05393015 3.70699463,5.30941301 Z M6.47725675,3.45800313 L6.36005669,5.47053539 C6.36005669,5.6514237 6.20378995,5.79218116 6.02842394,5.79218116 C5.9699686,5.79218116 5.93090191,5.77211574 5.87215719,5.75205031 L4.29212678,4.56459639 C4.78581717,4.05545541 5.40763058,3.69987061 6.08687927,3.53826484 L6.47725675,3.45800313 Z M7.43308834,3.47806856 C8.25233122,3.57869517 9.03279679,3.9611362 9.61792893,4.56459639 L8.03789852,5.73198489 C7.90130981,5.81224659 7.70626576,5.79218116 7.60874374,5.65112422 C7.57016382,5.61539106 7.54868718,5.56393116 7.54999901,5.51036675 L7.43308834,3.47806856 Z" id="形状结合"></path>
            </g>
        </g>
    </g>
</svg>
